X:1
T:Title
%%score ( 1 2 ) { 3 | 4 }
L:1/8
Q:1/4=96
M:3/4
K:Ab
V:1 treble nm="Grand Piano, Soprano"
V:2 treble 
V:3 bass nm="Choir Pad, Bass"
V:4 bass 
V:1
 [Ec][DB] [CA]2 [CE]2 | [EA][EG] [EG]2 [DF]2 | [EB][Ec] [Ed]3 [EG] | [EA][FB] [Ec]4 | %4
w: By~James~McGranahan,~1891 * * *||||
 [Ec][DB] [CA]2 [CE]2 | [EA][EG] [EG]2 [DF]2 | [DB][Ec] [Fd]3 [DF] | [DG][DB] [CA]4 | %8
w: ||||
 [CA][CG] [CF]3 [C=E] | [CF][CA] [CG]2 C2 | [CA][CG] [CF]3 [C=E] | z2 .G2 z2 | %12
w: ||||
 [Ec][DB] [CA]2 [CE]2 | [EA][EG] [EG]2 [DF]2 | [DB][Fc] [Fe]3 [Fd] | [EG][EB] [EA]4- | [EA]4 z2 |] %17
w: |||||
V:2
 x6 | x6 | x6 | x6 | x6 | x6 | x6 | x6 | x6 | x6 | x6 | [CF][=DA] E-[E-B] [Ed]2 | x6 | x6 | x6 | %15
 x6 | x6 |] %17
V:3
 A,E, E,2 A,2 | E,E, A,2 A,2 | G,A, G,3 D | CG, A,4 | A,E, E,2 A,2 | E,E, A,2 A,2 | F,A, A,3 A, | %7
 B,E, E,4 | F,G, A,3 G, | A,F, =E,2 E,2 | F,B, A,3 G, | A,B, B,4 | A,E, E,2 A,2 | A,E, A,2 A,2 | %14
 A,A, B,3[K:treble] B, | DD C4- | C4 z2 |] %17
V:4
 A,,A,, A,,2 A,,2 | C,C, D,2 D,2 | D,C, B,,3 E, | E,E, A,,4 | A,,A,, A,,2 A,,2 | C,C, D,2 D,2 | %6
 D,C, B,,3 B,, | .E,2 A,,4 | C,C, F,4 | .F,2 C,2 C,2 | C,C, F,4 | F,B,, E,4 | .E,2 A,,2 A,,2 | %13
 C,C, D,2 D,2 | D,C, B,,3 B,, | E,E, A,,4- | A,,4 z2 |] %17

